X:1
T:Variations
T:Variations
T:from Mikrokosmos 3
T:Bartók Béla, Sz. 107
C:Bartók Béla, Sz. 107
%%score { ( 1 4 ) | ( 2 3 ) }
L:1/8
Q:1/4=112
M:2/4
K:C
V:1 treble nm="Piano" snm="Pno."
V:4 treble 
V:2 bass 
V:3 bass 
V:1
"^Allegro moderato,"!f! (F2 ED | EF G2 | D2) z2 | (c2 BA | Bc d2 | A2) z2 | (dcBA | B2 G2) | %8
 (GFED | E2 C2) | (F2 ED | EF G2 | D2) z2 | z4 | [df]4 | z4 | [_Bg]2 z2 | %17
[Q:1/4=112] [Ag]4[Q:1/4=111]"^.5"[Q:1/4=110]"^.6" | %18
[Q:1/4=109]"^.2" z2[Q:1/4=104]"^.2"!<(! (B[Q:1/4=100]"^.5"^c[Q:1/4=107]"^.1" | %19
[Q:1/4=96] [d^f]2)!<)! z2 ||[Q:1/4=138]"^Più mosso," (=FEFD | EFGC | D2) z2 | (cBcA | BcdG | %25
 A2) z2 | (G2 AG | dc G2) | (CDEF | GD C2) | (FEFG | EDEC | D2) z2 | z2 (!^!d2- | d2 A2) | %35
 z2 _B2- | B4 |[Q:1/4=138] z2[Q:1/4=136]"^.4" (!tenuto!.[CA]2[Q:1/4=137]"^.7"[Q:1/4=133]"^.7" | %38
[Q:1/4=129]"^.2" z2[Q:1/4=113]"^.6" !tenuto!.[B,G]2[Q:1/4=122]"^.6"[Q:1/4=102]"^.2" | %39
[Q:1/4=88] !tenuto!.[A,^F]2) z2 || %40
[M:3/4][K:bass][Q:1/4=138]"^Lo stesso tempo, tranquillo"!mf! (^F,2 E,2 D,2 | E,4 ^F,2 | G,2 D,4) | %43
 (^C2 B,2 A,2 | B,4 ^C2 | D2 E4) | (A,2 B,2 ^C2 | D4 A,2) | z6 |!p! [_B,,E,]6 | z6 | z6 | %52
!pp!!>(! [C,_B,-]6 | [=F,B,]4!>)! z2 |[K:treble]!p! (a2 b2 ^c'2 | d'2 a4) | z6 |!pp! [EGB]6 | %58
!p!!<(! (^F2[Q:1/4=134] E2[Q:1/4=128] D2 |[Q:1/4=138] E4!<)![Q:1/4=134]!>(! ^F2 | %60
[Q:1/4=126] G2[Q:1/4=138] A4- | A2)!>)! z2 z2 |!pp! (e2 ^f2 g2 | d6- | d2) z2 z2 | %65
[Q:1/4=160]"^Più andante," z2!p! (D2 E2 | ^F2 E2 D2 | %67
!>(! E2"^calando"[Q:1/4=150] ^F2[Q:1/4=125] =G2 | D4)!>)! z2 |] %69
V:2
 z4 | ([C,G,]4 | [D,^F,]2) z2 | z4 | ([G,D]4 | [A,^C]2) z2 | z4 | (C2 B,2) | z4 | ([_B,,F,-]4 | %10
 [_A,,F,-]4 | [G,,F,]2) z2 | [D,^F,]2 z2 | (DCB,A, | B,2 G,2) | (G,F,E,D, | E,2 C,2) | (F,2 E,D, | %18
 E,F, G,2 | D,2) z2 || z2 ([A,C]2- | [A,C]2 [G,B,]2- | [G,B,]2 [^F,A,]2) | z2[K:treble] ([EG]2- | %24
 [EG]2 [D^F]2- | [DF]2 [^CE]2) |[K:bass] z2 ([^F,C]2- | [F,C]2 [=F,B,]2) | z2 ([B,,F,]2- | %29
 [B,,F,]2 [_B,,E,]2) | z4 | F,4- | F, z z2 | (G,,2 =A,,G,, | D,C, G,,2) | (C,D,C,F, | G,D, C,2) | %37
 (F,E,F,D, | E,F,G,C, | D,2) z2 ||[M:3/4] z6 |!mp! ([C,,G,,]6- | [C,,G,,]6 | [B,,,^F,,]4) z2 | %44
 ([G,,D,]6- | [G,,D,]6 | [^F,,^C,]2) z2 z2 | [=F,,=C,]4 z2 |!mp! (D,2 E,2 ^F,2 | G,4 D,2) | z6 | %51
!p! (^F,,2 E,,2 D,,2 | E,,2 ^F,,2 G,,2 | D,,4) z2 |[K:treble] z6 |!pp! [Bd^f]6 |!p! (d2 e2 ^f2 | %57
 g2 d4) | z6 |[K:bass] [^C,^F,^A,]6- | [C,F,A,]6- | [C,F,A,]2 z2 z2 | z6 |[K:treble] [CD^G]6- | %64
 [CDG]2 z2 z2 | z6 | z6 |[K:bass] (!tenuto![B,,E,^G,]4 z2 | !tenuto![A,,D,^F,]4) z2 |] %69
V:3
 x4 | x4 | x4 | x4 | x4 | x4 | x4 | F,4 | x4 | x4 | x4 | x4 | x4 | x4 | x4 | x4 | x4 | x4 | x4 | %19
 x4 || x4 | x4 | x4 | x2[K:treble] x2 | x4 | x4 |[K:bass] x4 | x4 | x4 | x4 | x4 | _A,,4- | %32
 A,,G,,_A,,F,, | x4 | x4 | x4 | x4 | x4 | x4 | x4 ||[M:3/4] x6 | x6 | x6 | x6 | x6 | x6 | x6 | x6 | %48
 x6 | x6 | x6 | x6 | x6 | x6 |[K:treble] x6 | x6 | x6 | x6 | x6 |[K:bass] x6 | x6 | x6 | x6 | %63
[K:treble] x6 | x6 | x6 | x6 |[K:bass] x6 | x6 |] %69
V:4
 x4 | x4 | x4 | x4 | x4 | x4 | x4 | x4 | x4 | x4 | x4 | x4 | x4 | x4 | x4 | x4 | x4 | x4 | x4 | %19
 x4 || x4 | x4 | x4 | x4 | x4 | x4 | x4 | x4 | x4 | x4 | x4 | x4 | x4 | x2 ^F2- | F4 | x2 (!^!A2- | %36
 A2 D2) | x4 | x4 | x4 ||[M:3/4][K:bass] x6 | x6 | x6 | x6 | x6 | x6 | x6 | x6 | x6 | x6 | x6 | %51
 x6 | x6 | x6 |[K:treble] x6 | x6 | x6 | x6 | x6 | x6 | x6 | x6 | x6 | x6 | x6 | x6 | x6 | x6 | %68
 x6 |] %69

